static/img/menus/ico-arms.svg

<svg width="16" height="16" viewBox="0 0 16 16" fill="none" xmlns="http://www.w3.org/2000/svg">
<path d="M8.05005 15C4.05005 14.3333 2.05005 12 2.05005 8V2.6L8.05005 2L14.05 2.525V8C14.05 12 12.05 14.3333 8.05005 15ZM8.05005 7.5H7.95005C7.72227 7.46946 7.51115 7.3639 7.35005 7.2C7.24971 7.11414 7.17047 7.00635 7.11845 6.88497C7.06642 6.76359 7.04302 6.63187 7.05005 6.5C7.0546 6.22165 7.16138 5.9547 7.35005 5.75C7.5471 5.58744 7.79459 5.49853 8.05005 5.49853C8.3055 5.49853 8.55299 5.58744 8.75005 5.75C8.93872 5.9547 9.0455 6.22165 9.05005 6.5C9.05707 6.63187 9.03367 6.76359 8.98165 6.88497C8.92963 7.00635 8.85039 7.11414 8.75005 7.2C8.66004 7.29516 8.5515 7.37087 8.43111 7.42247C8.31071 7.47406 8.18103 7.50045 8.05005 7.5V11Z" fill="#00FFCB"/>
<path d="M8.05005 7.5H7.95005C7.72227 7.46946 7.51115 7.3639 7.35005 7.2C7.24971 7.11414 7.17047 7.00635 7.11845 6.88497C7.06642 6.76359 7.04302 6.63187 7.05005 6.5C7.0546 6.22165 7.16138 5.9547 7.35005 5.75C7.5471 5.58744 7.79459 5.49853 8.05005 5.49853C8.3055 5.49853 8.55299 5.58744 8.75005 5.75C8.93872 5.9547 9.0455 6.22165 9.05005 6.5C9.05707 6.63187 9.03367 6.76359 8.98165 6.88497C8.92963 7.00635 8.85039 7.11414 8.75005 7.2C8.66004 7.29516 8.5515 7.37087 8.43111 7.42247C8.31071 7.47406 8.18103 7.50045 8.05005 7.5ZM8.05005 7.5V11M8.05005 15C4.05005 14.3333 2.05005 12 2.05005 8V2.6L8.05005 2L14.05 2.525V8C14.05 12 12.05 14.3333 8.05005 15Z" stroke="black" stroke-linecap="round" stroke-linejoin="round"/>
<path d="M8.05005 7.50001H7.95005C7.72227 7.46946 7.51115 7.36391 7.35005 7.20001C7.24971 7.11415 7.17046 7.00636 7.11844 6.88498C7.06642 6.7636 7.04302 6.63188 7.05005 6.50001C7.0546 6.22166 7.16138 5.95471 7.35005 5.75001C7.5471 5.58745 7.79459 5.49854 8.05005 5.49854C8.3055 5.49854 8.55299 5.58745 8.75005 5.75001C8.93872 5.95471 9.0455 6.22166 9.05005 6.50001C9.05707 6.63188 9.03367 6.7636 8.98165 6.88498C8.92963 7.00636 8.85039 7.11415 8.75005 7.20001C8.66004 7.29516 8.5515 7.37088 8.4311 7.42247C8.31071 7.47407 8.18103 7.50046 8.05005 7.50001V11Z" fill="black"/>
<path d="M8.05005 7.50001H7.95005C7.72227 7.46946 7.51115 7.36391 7.35005 7.20001C7.24971 7.11415 7.17046 7.00636 7.11844 6.88498C7.06642 6.7636 7.04302 6.63188 7.05005 6.50001C7.0546 6.22166 7.16138 5.95471 7.35005 5.75001C7.5471 5.58745 7.79459 5.49854 8.05005 5.49854C8.3055 5.49854 8.55299 5.58745 8.75005 5.75001C8.93872 5.95471 9.0455 6.22166 9.05005 6.50001C9.05707 6.63188 9.03367 6.7636 8.98165 6.88498C8.92963 7.00636 8.85039 7.11415 8.75005 7.20001C8.66004 7.29516 8.5515 7.37088 8.4311 7.42247C8.31071 7.47407 8.18103 7.50046 8.05005 7.50001ZM8.05005 7.50001V11" stroke="black" stroke-linecap="round" stroke-linejoin="round"/>
</svg>

<svg xmlns="http://www.w3.org/2000/svg" width="16" height="16" fill="none" viewBox="0 0 16 16"><path fill="#00ffcb" d="M8.05 15q-6-1-6-7V2.6l6-.6 6 .525V8q0 6-6 7m0-7.5h-.1a1.03 1.03 0 0 1-.6-.3.86.86 0 0 1-.3-.7c.005-.278.111-.545.3-.75a1.1 1.1 0 0 1 1.4 0c.189.205.296.472.3.75a.86.86 0 0 1-.3.7.96.96 0 0 1-.7.3V11Z"/><path stroke="#000" stroke-linecap="round" stroke-linejoin="round" d="M8.05 7.5h-.1a1.03 1.03 0 0 1-.6-.3.86.86 0 0 1-.3-.7c.005-.278.111-.545.3-.75a1.1 1.1 0 0 1 1.4 0c.189.205.296.472.3.75a.86.86 0 0 1-.3.7.96.96 0 0 1-.7.3m0 0V11m0 4q-6-1-6-7V2.6l6-.6 6 .525V8q0 6-6 7"/><path fill="#000" d="M8.05 7.5h-.1a1.03 1.03 0 0 1-.6-.3.86.86 0 0 1-.3-.7c.005-.278.111-.545.3-.75a1.1 1.1 0 0 1 1.4 0c.189.205.296.472.3.75a.86.86 0 0 1-.3.7.96.96 0 0 1-.7.3V11Z"/><path stroke="#000" stroke-linecap="round" stroke-linejoin="round" d="M8.05 7.5h-.1a1.03 1.03 0 0 1-.6-.3.86.86 0 0 1-.3-.7c.005-.278.111-.545.3-.75a1.1 1.1 0 0 1 1.4 0c.189.205.296.472.3.75a.86.86 0 0 1-.3.7.96.96 0 0 1-.7.3m0 0V11"/></svg>
